src/24/panel/network-wireless-offline.svg

<svg xmlns="http://www.w3.org/2000/svg" width="24" height="24" version="1.1">
 <defs>
  <style id="current-color-scheme" type="text/css">
   .ColorScheme-Text { color:#dfdfdf; } .ColorScheme-Highlight { color:#5294e2; }
  </style>
 </defs>
 <path style="fill:currentColor" class="ColorScheme-Text" d="m 15,15 v 1 c 0,0.28 0.1,0.54 0.28,0.72 l 0.78,0.78 -0.78,0.78 C 15.1,18.47 15,18.73 15,19 v 1 h 1 c 0.28,0 0.54,-0.1 0.72,-0.28 l 0.78,-0.78 0.78,0.78 C 18.46,19.9 18.73,20 19,20 h 1 v -1 c 0,-0.27 -0.1,-0.53 -0.28,-0.72 L 18.94,17.5 19.72,16.72 C 19.9,16.54 20,16.28 20,16 v -1 h -1 c -0.27,0 -0.54,0.1 -0.72,0.28 L 17.5,16.07 16.72,15.28 C 16.54,15.1 16.28,15 16,15 Z"/>
 <path style="opacity:0.3;fill:currentColor" class="ColorScheme-Text" d="M 12,5 C 8.9494,5 6.0806,6.0732 4,8 l 8,11 2.019531,-2.777344 C 14.011891,16.148415 14,16.074553 14,16 v -1 -1 h 1.636719 L 20,8 C 17.919,6.0731 15.051,5 12,5 Z"/>
</svg>

<svg xmlns="http://www.w3.org/2000/svg" width="24" height="24"><defs><style id="current-color-scheme" type="text/css">.ColorScheme-Text{color:#dfdfdf}</style></defs><path class="ColorScheme-Text" d="M15 15v1c0 .28.1.54.28.72l.78.78-.78.78c-.18.19-.28.45-.28.72v1h1c.28 0 .54-.1.72-.28l.78-.78.78.78c.18.18.45.28.72.28h1v-1c0-.27-.1-.53-.28-.72l-.78-.78.78-.78c.18-.18.28-.44.28-.72v-1h-1c-.27 0-.54.1-.72.28l-.78.79-.78-.79c-.18-.18-.44-.28-.72-.28z" fill="currentColor"/><path class="ColorScheme-Text" d="M12 5C8.95 5 6.08 6.073 4 8l8 11 2.02-2.777c-.008-.075-.02-.148-.02-.223v-2h1.637L20 8c-2.081-1.927-4.949-3-8-3z" opacity=".3" fill="currentColor"/></svg>
